X:2096
L:1/8
M:4/4
K:G
 AF | DGGA B2 BG | cBcd ed d2 | DGGA B2 Bd | cBcA G2 :| gfge edBd | cBcd edBd | gfge edBd | 
 cBcA G2 f2 | gfge edBd | cBcd edBd | gbge d2 Bd | cBcA G2 ||

